!!!OTL: Wild Rover
!!!ONM: 65.
**kern
*clefG2
*k[b-]
*F:
*M3/4
*>[A,A,B]
*>norep[A,B]
*>A
=!|:
*MM80
{(8A
8c)
=1
4f
4f
8f
8g
=2
4f
4c
4B-
=3
4A
4.g
8f#
=4
2g}
{8f
8g
=5
4a
4a
4cc
=6
4b-
4g
(8e
8c)
=7
4c
4d
4e
=8:|!
2f}
*>B
!Conklin/Pearce 
!!!4r
!!!4r
{(8A
8c)
=9
4f
4f
4g
=10
(8e
8d)
4c
(8g
8e)
=11
4c
4g
(8g
8e)
=12
2c}
{4a
=13
4a
4cc
(8cc
8a)
=14
(8f
8d)
4c
4c
=15
4c
4d
4e
=16
2.f}
==
*-
!!!CNT: Folksongs of Maritime Canada
!!!MRD: 1928///-1932///
!!!OCL: Helen Creighton
!!!YOR: Songs and Ballads from Nova Scotia
!!!PPR: J.M. Dent & Sons, Limited
!!!PPP: Toronto, Canada
!!!PDT: 1932///
!!!reprint: Dover Publications, 1992: ISBN 0-486-21703-5
!!!ENC1: Craig Stuart Sapp (music and bibliographic data)                       
!!!ENC2: Marcus Pearce (phrase markings and key designations)                   
!!!ENC3: Darrell Conklin (phrase markings and key designations)   
!!!END: 2002/04/10/
!!!EEV: 2004/06/05
!!!MPN: Mr. Faulkner
!!!PPG: 134
!!!EFL: 66/152
!!!ARE: Canada; Nova Scotia
!!!verses: 6
!!!VTS: 2669700954
